!!!OTL: Sore Is My Heart
!!!ARE: China
!!!AMD: Pentatonic
**kern
=1-
*clefG2
*k[b-]
*M6/8
*MM92
{8f/L
8f/
8f/J
4cc\
8cc\
=2
4.a/
4.f/}
=3
{8a/L
8a/
8cc/J
4dd\
8dd\
=4
[4.cc\
4cc\]}
8r
=5
{8dd\L
8dd\
8dd\J
4cc\
8cc\
=6
4.a/
4.g/}
=7
{8cc\L
8cc\
8cc\J
4g/
8a/
=8
[4.f/
4f/]}
8r
=9
{8ff\L
8ff\
8ff\J
4dd\
8cc\
=10
[4.a/
4a/]}
8r
=11
{8ff\L
8ff\
8ff\J
4dd\
8cc\
=12
[4.a/
4a/]}
8r
=13
{8dd\L
8dd\
8dd\J
4cc\
8a/
=14
[4.f/
4f/]}
8r
=15
{8cc\L
8cc\
8cc\J
4a/
8g/
=16
2.f/}
==
*-
